packages/core/assets/Icons/close.svg

<svg viewBox="0 0 20 20" fill="none" xmlns="http://www.w3.org/2000/svg">
<path d="M10 11.1666L5.91671 15.25C5.76393 15.4028 5.56949 15.4791 5.33337 15.4791C5.09726 15.4791 4.90282 15.4028 4.75004 15.25C4.59726 15.0972 4.52087 14.9028 4.52087 14.6666C4.52087 14.4305 4.59726 14.2361 4.75004 14.0833L8.83337 9.99998L4.75004 5.91665C4.59726 5.76387 4.52087 5.56942 4.52087 5.33331C4.52087 5.0972 4.59726 4.90276 4.75004 4.74998C4.90282 4.5972 5.09726 4.52081 5.33337 4.52081C5.56949 4.52081 5.76393 4.5972 5.91671 4.74998L10 8.83331L14.0834 4.74998C14.2362 4.5972 14.4306 4.52081 14.6667 4.52081C14.9028 4.52081 15.0973 4.5972 15.25 4.74998C15.4028 4.90276 15.4792 5.0972 15.4792 5.33331C15.4792 5.56942 15.4028 5.76387 15.25 5.91665L11.1667 9.99998L15.25 14.0833C15.4028 14.2361 15.4792 14.4305 15.4792 14.6666C15.4792 14.9028 15.4028 15.0972 15.25 15.25C15.0973 15.4028 14.9028 15.4791 14.6667 15.4791C14.4306 15.4791 14.2362 15.4028 14.0834 15.25L10 11.1666Z" fill="currentColor"/>
</svg>

<svg xmlns="http://www.w3.org/2000/svg" width="20" height="20" fill="none" viewBox="0 0 20 20">
  <path fill="#201F1F" d="M10 11.167 5.917 15.25a.79.79 0 0 1-.584.23.79.79 0 0 1-.583-.23.79.79 0 0 1-.23-.583.79.79 0 0 1 .23-.584L8.833 10 4.75 5.917a.79.79 0 0 1-.23-.584.79.79 0 0 1 .23-.583.79.79 0 0 1 .583-.23.79.79 0 0 1 .584.23L10 8.833l4.083-4.083a.79.79 0 0 1 .584-.23.79.79 0 0 1 .583.23.79.79 0 0 1 .23.583.79.79 0 0 1-.23.584L11.167 10l4.083 4.083a.79.79 0 0 1 .23.584.79.79 0 0 1-.23.583.79.79 0 0 1-.583.23.79.79 0 0 1-.584-.23L10 11.167Z"/>
</svg>
